X:1
T:Reel du Nord
R:reel
M:C|
L:1/8
K:Bm
|:"Bm"FB"<("">)"BB FB"<("">)"BB|FBdB "F#"c3B|"Bm"FB"<("">)"BB FB"<("">)"Bd|"F#"fedc "Bm"B3A|
"Bm"FB"<("">)"BB FB"<("">)"BB|FBdB "F#"c3B|"Bm"FB"<("">)"BB FB"<("">)"Bd|"F#"fedc "Bm"B2BA:|
|:"A"Acec "A/C#"Acec| "D"dcdf "Bm"a4| "A"Acec Acec|"D"defd "D#dim"A2BB|
"Em"Acec "A"Acec| "D"dcdf a4| "A"Acec Acec|1 dfec "D"d2BB:|\
[2 dfec "D"d4 |]
%%scale .6
%%text Notes in parentheses are "ghost notes".  They should be played very lightly.
%%scale .5
%%text 4/28/12
